X:166
T:Highlanders Quadrilles #4. Le4.166, The
Q:3/8=100
L:1/8
B:L.Leadley MS#4 c1850
Z:vmp.Mike Hicken 2016 www.village-music-project.org.uk
M:6/8
K:C
M:2/4
!p!c2 de|dc A2|G2 ce|g>f dz|c2 de|dc A2|G2 e>d|c2z2 !fermata!||g>gfe|
fe f2|e>edc|dc B2|c>cdc|Bedg|^fed>c|G2 AB|| c2 de|dc A2|
G2 ce|g>f dz|c2 de|dc A2|G2 e>d|c2 z2||!f!A2 Bc|BA F2|E2 Ac|
ec B2|c2 de|dc A2|E2 c>B|A2z2"_D.C."|]

